!!!!SEGMENT: pl-kk--kk-i-136--001_anonim--caligaverunt-oculi-a-fletu-meo.krn
!!!cenid: 16xx:747
!!!COM: Anonim
!!!COM-rismID: pe30004985
!!!CDT:
!!!CNT:
!!!OTL: Caligaverunt oculi a fletu meo
!!!PDT:
!!!AGN: Sacred
!!!YEC: Copyright 2022 Narodowy Instytut Fryderyka Chopina (https://polishscores.org)
!!!YEM: License CC-BY-4.0 (https://creativecommons.org/licenses/by/4.0)
!!!SMS-siglum: PL-Kk
!!!SMS-shelfmark: Kk.I.136
!!!SMS-shelfwork: 001 W
!!!SMS-variant: Bassus: pl-kk--i-136--0007
!!!SMS-altvar: Bassus: pl-kk--i-136--0005
!!!NIFC-rismSourceID: 1001143561
!!!NIFC-rismChildID: 1001143707
!!!NIFC-islandoraID: pl-kk:3571
!!!URL-pdf-islandora: https://repozytorium.nifc.pl/islandora/object/pl-kk%3A3571/datastream/PDF/view
!!!URL-scan: https://polish.musicsources.pl/pl/lokalizacje/galeria/rekopisy/5766 @EN{Scan on Polish Music Sources Website} @PL{Skany w portalu Dziedzictwo Muzyki Polskiej w otwartym dostępie}
!!!IIIF:
!!!ONB-nifc: UWAGA: utwory w zbiorze: 1. Caligaverunt oculi a fletu meo, 2. Vinea mea electa, 3. Sepulto Domine, 4. Ecce quo modo moritur
!!!AIN: 1 empty 1 tenor 2 vox
!!!key:
**kern	**text	**kern	**text	**kern	**kern	**text
*part4	*	*part3	*	*part2	*part1	*
*staff4	*	*staff3	*	*staff2	*staff1	*
*Iempty	*	*Itenor	*	*Ivox	*Ivox	*
*I"Baſsus	*	*I"Tenor	*	*I"[Cantus Secundus]	*I"Cantus Primus.	*
*I'B.	*	*I'T.	*	*I'[C. 2]	*I'C. 1	*
*clefC4	*	*clefC3	*	*clefC3	*clefG2	*
*k[]	*	*k[]	*	*k[]	*k[]	*
*d:	*	*d:	*	*d:	*d:	*
*M4/4	*	*M4/4	*	*M4/4	*M4/4	*
*met(c)	*	*met(c)	*	*met(c)	*met(c)	*
=1-	=1-	=1-	=1-	=1-	=1-	=1-
*2\right	*	*2\right	*	*	*2\right	*
!	!	!	!	!	!LO:SIC:o:s:v=metrum C z kropką	!
!	!	!LO:TX:a:i:t=a 4. Planctus Primus	!	!	!LO:TX:t=P:problem=C wielkie na początku pięciolinii, przed kluczem	!
!LO:TX:a:i:t=Planctus a 4. Voc.	!	!LO:TX:t=P:problem=2\right&colon; global	!	!	!LO:TX:a:i:t=à. 4.	!
!LO:TX:t=P:problem=C wielkie na początku pięciolinii, przed kluczem	!	!LO:TX:t=P:problem=C wielkie na początku pięciolinii, przed kluczem	!	!LO:TX:t=P:problem=brak partii w źródle	!LO:TX:t=P:problem=2\right&colon; global	!
2.d\	Ca-	2.f\	Ca-	1ryy	2.dd\	Ca-
!LO:TX:t=P:global:problem=caudy wszystkich nut po prawej	!	!LO:TX:t=P:global:problem=caudy wszystkich nut po prawej	!	!	!LO:TX:t=P:global:problem=caudy wszystkich nut po prawej	!
4d\	-li-	4f\	-li-	.	4dd\	-li-
=2-	=2-	=2-	=2-	=2-	=2-	=2-
2d\	-ga-	2f\	-ga-	1ryy	2dd\	-ga-
1G/	-ue-	1g\	-ue-	.	1dd\	-ue-
=3-	=3-	=3-	=3-	=3-	=3-	=3-
.	.	.	.	1ryy	.	.
2d\	-runt	2f,<\	-runt	.	2dd\	-runt
=4-	=4-	=4-	=4-	=4-	=4-	=4-
!	!	!	!	!	!LO:TX:a:t=P:problem=# above	!
2.A/	o-	2.e\	o-	1ryy	2.cc#X\	o-
4A/	-cu-	4e\	-cu-	.	4cc#\	-cu-
=5-	=5-	=5-	=5-	=5-	=5-	=5-
!LO:TX:t=P:problem=kreska pseudotaktowa	!	!LO:TX:t=P:problem=kreska pseudotaktowa	!	!	!LO:TX:t=P:problem=kreska pseudotaktowa	!
1D	-li	1d	-li	1ryy	1dd	-li
=6-	=6-	=6-	=6-	=6-	=6-	=6-
2r	.	2r	.	1ryy	2r	.
!	!	!	!	!	!LO:TX:a:t=P:problem= # above	!
2A/	à	2e\	à	.	2cc#X\	à
=7-	=7-	=7-	=7-	=7-	=7-	=7-
1.G	fle-	1.g	fle-	1ryy	1.dd	fle-
=8-	=8-	=8-	=8-	=8-	=8-	=8-
.	.	.	.	1ryy	.	.
2F/	-tu	2c/	-tu	.	2ff\	-tu
=9-	=9-	=9-	=9-	=9-	=9-	=9-
1B-X	me-	1d	me-	1ryy	1dd	me-
=10-	=10-	=10-	=10-	=10-	=10-	=10-
!	!	!	!	!	!LO:TX:a:t=P:problem= # above	!
!	!	!LO:TX:t=P:problem=kreska pseudotaktowa	!	!	!LO:TX:t=P:problem=kreska pseudotaktowa	!
1A	-o	1e	-o	1ryy	1cc#X	-o
!LO:LB:g=original	!	!	!	!	!	!
=11-	=11-	=11-	=11-	=11-	=11-	=11-
2r	.	2r	.	1ryy	2r	.
1d\	qui-	1f\	qui-	.	1dd\	qui-
=12-	=12-	=12-	=12-	=12-	=12-	=12-
.	.	.	.	1ryy	.	.
!LO:TX:t=P:problem=# above	!	!	!	!	!	!
2c#X\	-a	2e\	-a	.	2ee\	-a
=13-	=13-	=13-	=13-	=13-	=13-	=13-
2d\	e-	2d\	e-	1ryy	2ff\	e-
2A/	-lon-	2e\	-lon-	.	2ee\	-lon-
=14-	=14-	=14-	=14-	=14-	=14-	=14-
2.e\	-ga-	2.g\	-ga-	1ryy	1.ee	-ga-
4d\	.	4f\	.	.	.	.
=15-	=15-	=15-	=15-	=15-	=15-	=15-
!LO:TX:a:t=P:problem= # above	!	!	!	!	!	!
2c#X\	.	2e\	.	1ryy	.	.
2d\	-tus	2f\	-tus	.	2dd\	-tus
=16-	=16-	=16-	=16-	=16-	=16-	=16-
!	!	!	!	!	!LO:TX:a:t=P:problem= # above	!
!LO:TX:t=P:problem=kreska pseudotaktowa	!	!LO:TX:t=P:problem=kreska pseudotaktowa	!	!	!LO:TX:t=P:problem=kreska pseudotaktowa	!
1A	eſt	1e	eſt	1ryy	1cc#X	eſt
=17-	=17-	=17-	=17-	=17-	=17-	=17-
2r	.	2r	.	1ryy	2r	.
!	!	!	!	!	!LO:TX:a:t=P:problem= # above	!
1A\	qui	1e\	qui	.	1cc#X\	qui
=18-	=18-	=18-	=18-	=18-	=18-	=18-
.	.	.	.	1ryy	.	.
!LO:TX:a:t=P:problem=custos c	!	!	!	!	!	!
2d\	Con-	2f\	Con-	.	2dd\	Con-
!LO:LB:g=original	!	!	!	!	!	!
=19-	=19-	=19-	=19-	=19-	=19-	=19-
2c\	-ſo-	2g\	-ſo-	1ryy	2ee\	-ſo-
2A/	-la-	2a\	-la-	.	2ee\	-la-
=20-	=20-	=20-	=20-	=20-	=20-	=20-
!	!	!	!	!	!LO:TX:a:t=P:problem=custos d	!
2.f\	-ba-	2.a\	-ba-	1ryy	1ccny	-ba-
4e\	.	4g\	.	.	.	.
!	!	!	!	!	!LO:TX:a:t=P:problem= custos dd	!
!	!	!	!	!	!LO:LB:g=original	!
=21-	=21-	=21-	=21-	=21-	=21-	=21-
2d\	.	2f\	.	1ryy	2.dd\	.
!	!	!LO:TX:a:t=P:problem=custos e	!	!	!	!
2d\	-tur	2f\	-tur	.	.	.
.	.	.	.	.	4dd\	-tur
!	!	!LO:LB:g=original	!	!	!	!
=22-	=22-	=22-	=22-	=22-	=22-	=22-
!LO:TX:t=P:problem=kreska pseudotaktowa	!	!LO:TX:t=P:problem=kreska pseudotaktowa	!	!	!LO:TX:t=P:problem=kreska pseudotaktowa	!
1c	me	1e	me	1ryy	1g	me
=23-	=23-	=23-	=23-	=23-	=23-	=23-
2r	.	2r	.	1ryy	2r	.
2d\	Vi-	2f\	Vi-	.	2dd\	Vi-
=24-	=24-	=24-	=24-	=24-	=24-	=24-
1c	-de-	1g	-de-	1ryy	1ee	-de-
=25-	=25-	=25-	=25-	=25-	=25-	=25-
2F/	-te	1a,<	-te	1ryy	1ff,<	-te
1f\	Om-	.	.	.	.	.
=26-	=26-	=26-	=26-	=26-	=26-	=26-
.	.	2a\	Om-	1ryy	2ff\	Om-
2d\	-nes	2a\	-nes	.	2ff\	-nes
=27-	=27-	=27-	=27-	=27-	=27-	=27-
2.e\	po-	2.g\	po-	1ryy	2.ee\	po-
4e\	-pu-	4g\	-pu-	.	4ee\	-pu-
=28-	=28-	=28-	=28-	=28-	=28-	=28-
!LO:TX:t=P:problem=kreska pseudotaktowa	!	!LO:TX:t=P:problem=kreska pseudotaktowa	!	!	!LO:TX:t=P:problem=kreska pseudotaktowa	!
1A	-li	1a	-li	1ryy	1ee	-li
=29-	=29-	=29-	=29-	=29-	=29-	=29-
2r	.	2r	.	1ryy	2r	.
1A\	ſi	1e\	ſi	.	1cc\	ſi
=30-	=30-	=30-	=30-	=30-	=30-	=30-
.	.	.	.	1ryy	.	.
2d\	eſt	2f\	eſt	.	2dd\	eſt
=31-	=31-	=31-	=31-	=31-	=31-	=31-
!LO:TX:a:t=P:problem= # above	!	!	!	!	!	!
1.c#X	do-	1.e	do-	1ryy	1.ee	do-
=32-	=32-	=32-	=32-	=32-	=32-	=32-
.	.	.	.	1ryy	.	.
!	!	!	!	!	!LO:TX:t=P:problem=d2 lub e2	!
2d\	-lor	2f\	-lor	.	2dd\	-lor
=33-	=33-	=33-	=33-	=33-	=33-	=33-
2.G/	ſi-	2.g\	ſi-	1ryy	2.dd\	ſi-
4G/	-mi-	4g\	-mi-	.	4dd\	-mi-
=34-	=34-	=34-	=34-	=34-	=34-	=34-
!LO:TX:t=P:problem=kreska pseudotaktowa	!	!LO:TX:t=P:problem=kreska pseudotaktowa	!	!	!LO:TX:t=P:problem=kreska pseudotaktowa	!
1A	-lis	1e	-lis	1ryy	1cc	-lis
=35-	=35-	=35-	=35-	=35-	=35-	=35-
2r	.	2r	.	1ryy	2r	.
1d\	ſi-	1f\	ſi-	.	1dd\	ſi-
=36-	=36-	=36-	=36-	=36-	=36-	=36-
.	.	.	.	1ryy	.	.
2A/	-cut	2e\	-cut	.	2cc\	-cut
!!linebreak:original
=37-	=37-	=37-	=37-	=37-	=37-	=37-
2B-X\	do-	2d\	do-	1ryy	2dd\	do-
2G/	-lor	2g\	-lor	.	1dd\	-lor
=38-	=38-	=38-	=38-	=38-	=38-	=38-
1A	me-	1e	me-	1ryy	.	.
.	.	.	.	.	2cc\	me-
=39-	=39-	=39-	=39-	=39-	=39-	=39-
0D;	-us	1d;;	-us	1ryy	0dd;<	-us
!	!	!LO:LB:g=original	!	!	!LO:LB:g=original	!
=40-	=40-	=40-	=40-	=40-	=40-	=40-
.	.	1ryy	.	1ryy	.	.
!LO:LB:g=original	!	!	!	!	!	!
=41-	=41-	=41-	=41-	=41-	=41-	=41-
*	*	*M4/4	*	*	*	*
*	*	*met(c|)	*	*	*	*
!LO:TX:t=P:problem=O wielkie na początku pięciolinii, przed kluczem	!	!LO:TX:t=P:problem=O wielkie na początku pięciolinii, przed kluczem	!	!	!LO:TX:t=P:problem=O wielkie na początku pięciolinii, przed kluczem	!
0d	O	0f	O	1ryy	0dd	O
=42-	=42-	=42-	=42-	=42-	=42-	=42-
.	.	.	.	1ryy	.	.
=43-	=43-	=43-	=43-	=43-	=43-	=43-
1G	Vos	1g	Vos	1ryy	1dd	Vos
=44-	=44-	=44-	=44-	=44-	=44-	=44-
1d	om-	1f	om-	1ryy	1dd	om-
=45-	=45-	=45-	=45-	=45-	=45-	=45-
!LO:TX:t=P:problem=kreska pseudotaktowa	!	!LO:TX:t=P:problem=kreska pseudotaktowa	!	!	!LO:TX:t=P:problem=kreska pseudotaktowa	!
1A	-nes	1e	-nes	1ryy	1cc	-nes
=46-	=46-	=46-	=46-	=46-	=46-	=46-
2r	.	2r	.	1ryy	2r	.
2A/	qui	2a\	qui	.	2ee\	qui
=47-	=47-	=47-	=47-	=47-	=47-	=47-
2.e\	tran-	2.g\	tran-	1ryy	2.ee\	tran-
4e\	-ſi-	4g\	-ſi-	.	4ee\	-ſi-
=48-	=48-	=48-	=48-	=48-	=48-	=48-
2A/	-tis	2a\	-tis	1ryy	2ee\	-tis
!LO:TX:t=P:problem=kreska pseudotaktowa	!	!LO:TX:t=P:problem=kreska pseudotaktowa	!	!	!LO:TX:t=P:problem=kreska pseudotaktowa	!
2r	.	2r	.	.	2r	.
=49-	=49-	=49-	=49-	=49-	=49-	=49-
2r	.	2r	.	1ryy	2r	.
2.e\	tran-	2g\	tran-	.	2.ee\	tran-
=50-	=50-	=50-	=50-	=50-	=50-	=50-
.	.	2.g\	-ſi-	1ryy	.	.
4e\	-ſi-	.	.	.	4ee\	-ſi-
2cny\	-tis	.	.	.	2ee\	-tis
.	.	4g\	-tis	.	.	.
=51-	=51-	=51-	=51-	=51-	=51-	=51-
2d\	per	2f\	per	1ryy	2dd\	per
2Bny\	Vi-	2d\	Vi-	.	2dd\	Vi-
=52-	=52-	=52-	=52-	=52-	=52-	=52-
!LO:TX:t=P:problem=kreska pseudotaktowa	!	!LO:TX:t=P:problem=kreska pseudotaktowa	!	!	!LO:TX:t=P:problem=kreska pseudotaktowa	!
1A	-am	1e	-am	1ryy	1cc	-am
=53-	=53-	=53-	=53-	=53-	=53-	=53-
2r	.	2r	.	1ryy	2r	.
2d\	at-	2f\	at-	.	2dd\	at-
=54-	=54-	=54-	=54-	=54-	=54-	=54-
2.G/	-ten-	2.g\	-ten-	1ryy	2.dd\	-ten-
4G/	-di-	4g\	-di-	.	4dd\	-di-
=55-	=55-	=55-	=55-	=55-	=55-	=55-
!LO:TX:t=P:problem=kreska pseudotaktowa	!	!LO:TX:t=P:problem=kreska pseudotaktowa	!	!	!	!
1d	-te	1g	-te	1ryy	1dd	-te
=56-	=56-	=56-	=56-	=56-	=56-	=56-
2r	.	2r	.	1ryy	2r	.
1A\	et	2a\	et	.	1ee\	et
=57-	=57-	=57-	=57-	=57-	=57-	=57-
.	.	2a\	Vi-	1ryy	.	.
2d\	Vi-	2.a\	-de-	.	2ff\	Vi-
=58-	=58-	=58-	=58-	=58-	=58-	=58-
1e	-de-	.	.	1ryy	1ee	-de-
.	.	8g\L	.	.	.	.
.	.	8f\J	.	.	.	.
.	.	2g\	.	.	.	.
=59-	=59-	=59-	=59-	=59-	=59-	=59-
!	!	!LO:TX:a:t=P:problem=custos e	!	!	!	!
!LO:TX:t=P:problem=kreska pseudotaktowa	!	!	!	!	!LO:TX:t=P:problem=kreska pseudotaktowa	!
1A	-te	1a	-te	1ryy	1ee	-te
!	!	!LO:LB:g=original	!	!	!	!
=60-	=60-	=60-	=60-	=60-	=60-	=60-
2r	.	2r	.	1ryy	2r	.
1A\	ſi	1e\	ſi	.	1cc\	ſi
=61-	=61-	=61-	=61-	=61-	=61-	=61-
.	.	.	.	1ryy	.	.
!LO:TX:a:t=P:problem=custos cis	!	!	!	!	!LO:TX:a:t=P:problem=custos e	!
2d\	eſt	2f\	eſt	.	2dd\	eſt
!LO:LB:g=original	!	!	!	!	!LO:LB:g=original	!
=62-	=62-	=62-	=62-	=62-	=62-	=62-
!LO:TX:a:t=P:problem= # above	!	!	!	!	!	!
1.c#X	do-	1.e	do-	1ryy	1.ee	do-
=63-	=63-	=63-	=63-	=63-	=63-	=63-
.	.	.	.	1ryy	.	.
!	!	!	!	!	!LO:TX:t=P:problem=d2 lub e2	!
2d\	-lor	2f\	-lor	.	2dd\	-lor
=64-	=64-	=64-	=64-	=64-	=64-	=64-
2.G/	ſi-	2.g\	ſi-	1ryy	2.dd\	ſi-
4G/	-mi-	4g\	-mi-	.	4dd\	-mi-
=65-	=65-	=65-	=65-	=65-	=65-	=65-
!LO:TX:t=P:problem=kreska pseudotaktowa	!	!LO:TX:t=P:problem=kreska pseudotaktowa	!	!	!	!
1A	-lis	1e	-lis	1ryy	1cc	-lis
=66-	=66-	=66-	=66-	=66-	=66-	=66-
2r	.	2r	.	1ryy	2r	.
1d\	ſi-	1f\	ſi-	.	1dd\	ſi-
=67-	=67-	=67-	=67-	=67-	=67-	=67-
.	.	.	.	1ryy	.	.
2A/	-cut	2e\	-cut	.	2cc\	-cut
=68-	=68-	=68-	=68-	=68-	=68-	=68-
2B-X\	do-	2d\	do-	1ryy	2dd\	do-
2G/	-lor	2g\	-lor	.	1dd\	-lor
=69-	=69-	=69-	=69-	=69-	=69-	=69-
1A	me-	1e	me-	1ryy	.	.
.	.	.	.	.	2cc\	me-
=70-	=70-	=70-	=70-	=70-	=70-	=70-
0D;	-us	1d;<	-us	1ryy	0dd	-us
=71-	=71-	=71-	=71-	=71-	=71-	=71-
.	.	1ryy	.	1ryy	.	.
!LO:TX:b:i:t=2-dur Planctus	!	!	!	!	!LO:TX:b:i:t=Planctus Secundus	!
!LO:TX:rj:b:i:t=O uos repete	!	!LO:TX:b:i:t=repete O Vos omnes	!	!	!LO:TX:rj:b:i:t=Iterum\nO Vos omnes	!
==	==	==	==	==	==	==
*-	*-	*-	*-	*-	*-	*-
!!!system-decoration: [(s1,s2,s3,s4)]
!!!RDF**kern: > = above
!!!RDF**kern: < = below
!!!ENC: Leszek Kubiak
!!!EEV: 2021-02-16
!!!ENC: Mateusz Solarz
!!!END: 2021-03-16
